!!!COM: Anonymous
!!!OTL: Jamais nul jour de ma vie
!!!AGN: Song; Chanson; Rondeau
!!!SCT: Ano3152
!!!SCA: Ano3152
!!!SMS: Dijon Chansonnier
!!!folio: 70v-71r
!!!voices: 3
**kern	**kern	**kern
*staff3	*staff2	*staff1
*Ivox	*Ivox	*Ivox
*I"Contra	*I"Tenor	*I"Discantus
*I'C	*I'T	*I'D
*clefF4	*clefGv2	*clefG2
*k[]	*k[]	*k[]
*M2/1	*M2/1	*M2/1
*met(C|)	*met(C|)	*met(C|)
=1-	=1-	=1-
0AA	0A	0a
=2	=2	=2
1AA	1.e	1.cc
1AA	.	.
.	4d	4b
.	4c	4a
=3	=3	=3
1E	1B	1g
1F	1A	1a
=4	=4	=4
0A	0c	1e
.	.	[1a
=5	=5	=5
0E	0B	2a]
.	.	2f#i
.	.	1g#i
=6	=6	=6
[0AA	1.A	1r
.	.	[1a
.	2B	.
=7	=7	=7
0AA]	1.c	2a]
.	.	2g
.	.	2e
.	2B	2d
=8	=8	=8
2A	1A	2f
2c	.	1e
2.B	2G	.
.	2F	2d
4A	.	.
=9	=9	=9
1B	1G	2e
.	.	4d
.	.	4e
[1A	1D	2f
.	.	[2d
=10	=10	=10
2A]	0E	2d]
1G	.	2c#i
.	.	2c#i
2F	.	2B
=11	=11	=11
0A	[0D	0d
=12	=12	=12
0F	0D]	1r
.	.	[1a
=13	=13	=13
1D	0d	1a]
1G	.	1b
=14	=14	=14
1C	1e	0cc
1r	[1f	.
=15	=15	=15
0D	1f]	1a
.	1d	[1dd
=16	=16	=16
0A	0e	2dd]
.	.	2b
.	.	2cc
.	.	2dd
=17	=17	=17
1D	1.d	1b
1F	.	[1a
.	2c	.
=18	=18	=18
1G	1B	2a]
.	.	2g
1E	1G	[1g
=19	=19	=19
1D	0A	2g]
.	.	2e
1D	.	1f#i
=20	=20	=20
1E	1G	1g
2C	[1c	1r
[2F	.	.
=21	=21	=21
4F]	2c]	1a
4E	.	.
2F	2d	.
1C	[1e	1g
=22	=22	=22
2r	2e]	1e
2A	2c	.
1F	[1d	2f
.	.	[2a
=23	=23	=23
1D	1d]	2a]
.	.	4g
.	.	4f
1A	2c	1e
.	2B	.
=24	=24	=24
1B-	1d	1.d
[1A	[1D	.
.	.	2e
=25	=25	=25
1A]	2D]	2f
.	2E	2g
1D	2F	[1a
.	2G	.
=26	=26	=26
1F	1A	1a]
1G	1B	2g
.	.	2f
=27	=27	=27
1.AN	0cN	[0eN
4G	.	.
4F	.	.
=28	=28	=28
1E	1r	0e]
1A	1c	.
=29	=29	=29
1D	1.d	1r
1r	.	1f
.	2c	.
=30	=30	=30
1G	1B	1g
[1F	1A	[1a
=31	=31	=31
2F]	1.c	2a]
2E	.	2g
1C	.	[1e
.	2B	.
=32	=32	=32
1r	1G	2e]
.	.	2f
1G	1E	[1g
=33	=33	=33
1E	1C	2g]
.	.	2f
1C	[1c	2e
.	.	2c
=34	=34	=34
1.G	2c]	1.d
.	2B	.
.	[1G	.
2F	.	4e
.	.	4f
=35	=35	=35
1E	1G]	1g
1C	[1c	1e
=36	=36	=36
0G	2c]	0d
.	4B	.
.	4c	.
.	2B	.
.	2A	.
=37	=37	=37
1A	[0c	0c
1F	.	.
=38	=38	=38
2E	0c]	1r
2.C	.	.
.	.	1g
4D	.	.
2E	.	.
=39	=39	=39
2.F	1r	1a
4E	.	.
1C	1G	1g
=40	=40	=40
2r	1A	1cc
2c	.	.
2B	1G	1dd
2G	.	.
=41	=41	=41
2E	1c	1ee
2C	.	.
1G	1d	2dd
.	.	2b
=42	=42	=42
!	!	!LO:TX:Z=24:t=MS&colon; sb m
1C	1e	1.cc
2r	2d	.
2G	2B	2dd
=43	=43	=43
1C	1.c	1ee
1F	.	1a
.	2d	.
=44	=44	=44
1E	1e	1g
1F	1A	1cc
=45	=45	=45
1G	1G	2b
.	.	2a
1A	1c	[1a
=46	=46	=46
0E	0B	1a]
.	.	1g#i
=47	=47	=47
0AAl	0Al	0al
==	==	==
*-	*-	*-
!!!RDF**kern: l=long note in original notation
!!!RDF**kern: i=editorial accidental
!!!RDF**kern: N=signum congruentiae
!!!ENC: Chris Gage 1-25-2017
!!!END: 2018/12/10/
!!!EED: Jesse Rodin
!!!EEV: 2018/12/13/
!!!ONB: Translated from MusicXML and edited on 2018/12/13/ by Craig Sapp
!!muse2ps: C^@{COM}\n@{SMS}, @{folio}^v95,95,150c180
